X:1
T:Lobt Gott, ihr Christen, allzugleich
T:Lobt Gott, ihr Christen, allzugleich
T: Anonymous 18th C.
T:Public Domain - Reference: Mutopia-2005/08/07-579
T:Public Domain - Reference: Mutopia-2005/08/07-579
T:Public Domain - Reference: Mutopia-2005/08/07-579
T:Public Domain - Reference: Mutopia-2005/08/07-579
T:Public Domain - Reference: Mutopia-2005/08/07-579
T:Public Domain - Reference: Mutopia-2005/08/07-579
T:Public Domain - Reference: Mutopia-2005/08/07-579
C:Anonymous 18th C.
Z:Public Domain - Reference: Mutopia-2005/08/07-579
%%score { 1 | 2 | 3 }
L:1/8
Q:1/4=68
M:6/8
K:G
V:1 treble nm="Organ" snm="Org."
V:2 treble 
V:3 bass 
V:1
 G | dB d/4c/4B/4c/4 dgd | dBc d=fd | ece dac | BAB Bg/f/g/B/ | cAB cf/e/f | %6
 g/f/e/f/e/d/ ^c/B/c/d/B/c/ | d3- d/e/d/B/c/A/ | BEe- e/f/e/^c/d/B/ | ^G d2- d/=f/e/d/c/B/ | %10
 c3- c/e/d/c/B/A/ | fga- a/d/e/f/g- | g/f/e/f/g/e/ f3 | gb/g/a/f/ g3- | g/a/g/f/g/e/ f/g/a/g/a/f/ | %15
 g3- g/e/f/g/a/f/ | d/=f/e/d/c/B/ Aea- | a/g/f/e/d/c/ B/e/d/c/B/A/ | G/A/B/G/c/A/ dgd | %19
 d/c/B/G/c/A/ d/e/=f/e/f/d/ | e3 z3 | z d/f/e/g/ f/g/a/f/g/e/ | f/e/d/f/e/g/ fb/a/b/f/ | ge z z3 | %24
 z ^c/e/d/f/ ea/g/a/e/ | fd z z3 | z Bc d3- | d/B/c/e/a- a^gb- | bea- ag/f/g- | g^cf- fe/d/e | %30
 e/^c/d/e/f/g/ a3- | a g2- g/e/f/d/a/d/ | (3b/a/g/ fe/d/ d2 D | AF A/4G/4F/4G/4 AdA | AFG AcA | %35
 BGB AeG | FD z z/ d/e/f/g/a/ | b3- b/f/e/d/^c/B/ | ^c/B/c/d/e/f/ g/f/g/b/a/g/ | %39
 f/e/f/a/g/f/ e/d/e/g/f/e/ | d/c/d/f/e/d/ c/B/c/e/d/c/ | B/d/c/B/A/G/ e3- | ed/c/B/A/ f3- | %43
 f/f/e/d/c/B/ g3- | g/g/f/e/d/c/ a3- | a/g/f/e/d/c/ Bg/f/g | g/a/gf/g/ g/d/B/G/D | %47
 G/A/B/d/c/e/ d/e/=f/e/f/d/ | e3 z ^ca- | ad/f/e/g/ f/g/a/g/a/f/ | ge z z2 b- | %51
 ba/^g/a/e/ =f/e/f/a/f/e/ | ^d3 =d/c/d/=f/e/d/ | ccd eae | ecd ea/g/a/e/ | =fdf ebd | %56
 c/B/c/e/d/=f/ ea^g | a3- a/c'/b/a/^g/f/ | ^g2 b a/c'/b/a/g/b/ | aa^c d/c/d/f/e/g/ | fd z z2 f- | %61
 fb^d e/d/e/g/f/a/ | ge z z3 | z2 z z/ d/f/g/a/d/ | b/g/e/g/e/d/ ^c2 e- | %65
 e/g/f/e/d/^c/ d/e/d/=c/B/A/ | Bg/f/g/B/ BA (3A/B/c/ | cB (3d/e/=f/ f (3e/d/c/ (3B/A/G/ | %68
 fg z/ c/ BcA | GB/G/c/A/ d/B/e/c/=f/d/ | e/d/e/c'/e/c/ d/c/d/b/d/B/ | c/B/c/a/c/A/ B2 G | %72
 dB d/4c/4B/4c/4 dgd | dB d/4c/4B/4c/4 d/e/=f/e/f/d/ | ece fac | B/G/A/F/G z g/f/g/B/ | %76
 AF/A/G/B/ AdA | AF/A/G/B/ Adc | B/A/B/^c/d/c/ d/e/f/d/e/f/ | g3- g/a/g/f/e/d/ | %80
 ^c3- c/d/e/g/f/e/ | d/^c/d/f/e/g/ fb/a/b/f/ | g/a/g/f/g- g/e/a/g/f/e/ | f/e/f/d/e/f/ g3- | %84
 g/a/g/f/g/e/ f3 | gB/d/c/e/ dgd | dB/d/c/e/ d/e/=f/d/f/d/ | ece fac | (c B2) z2 |] %89
V:2
 z | z6 | z6 | z3 z2 D | GFG GBG | AFG AcA | BGB AeG | F/G/F/E/F/D/ EA,A- | A/B/A/F/G/E/ FB,B- | %9
 B/c/B/A/^G/F/ EBe- | e/d/c/B/A/^G/ A3- | A/e/d/c/B/A/ B/A/G/A/B/^c/ | dc/B/c- c/B/A/B/c/A/ | %13
 B/G/d/B/c/A/ B/c/B/A/B/G/ | A3- A/B/c/e/d/c/ | B/A/B/d/^c/e/ AAD | G3- G/B/A/G/F/E/ | %17
 F3 G/c/B/A/G/F/ | GG/D/A/D/ BdB | B/A/G/B/A/c/ B/c/d/c/d/B/ | cE/C/=F/D/ Gc/B/c/G/ | A3- Ad^c | %22
 dF z z3 | z G/B/A/c/ Be/d/e/B/ | ^cA z z3 | z F/A/G/B/ Ad/c/d/A/ | BGA B3- | %27
 BA/^G/A/c/ B/c/d/=f/e/d/ | c/B/c/e/d/c/ B/A/B/d/c/B/ | A/G/A/^c/B/A/ G/F/G/B/A/G/ | %30
 FD z z/ A/d/c/d/A/ | B/f/e/d/e/^c/ d3- | d/e/d^c/d/ d2 f | fdf/4e/4d/4e/4 f3- | fde fad | %35
 dBe/d/ ^c/B/c/d/B/c/ | d/^c/d/e/f/g/ a3- | ag/f/e/^d/ eBe- | e/f/e/d/^c/d/ e3- | eAd- dc/B/c- | %40
 cFB- BA/G/A- | ADG- G/B/A/G/F/E/ | c3- c/e/d/c/B/A/ | d3- d/f/e/d/c/B/ | e3- e/g/f/e/d/^c/ | %45
 f/e/d/c/B/A/ Gcd | (3e/d/c/ BA/G/ G2 z | z6 | z c/e/d/f/ e/f/g/f/g/e/ | f3 z ^DB- | %50
 BG/B/A/c/ B/c/d/c/d/B/ | cc/B/c- c3- | c/A/G/F/B- B^GE | E A2- A/B/c/d/c/B/ | cA z z2 A | %55
 Ad/c/B/A/ ^G/F/G/A/F/G/ | A3- A/B/c/e/d/=f/ | ed/c/B/A/ B3- | B/=f/e/d/e/B/ c/e/d/c/B/d/ | %59
 c^ce A2 A | AfA B/A/B/d/^c/e/ | d^df BGB | BeB ^c/B/c/e/d/f/ | ea/g/a/e/ fAd- | %64
 dBe- e/B/A/G/A/E/ | F/B/A/G/F/E/ FAd- | dB/A/B/G/ GF (3F/G/A/ | AG (3B/c/d/ d (3c/B/A/ (3G/F/E/ | %68
 D2 z/ G/ GAF | GG/B/A/c/ B/G/c/A/d/B/ | c/B/c/e/c/A/ B/A/B/d/B/G/ | A/G/A/c/A/F/ G2 z | %72
 BG/D/A/D/ B/A/B/G/c/A/ | BG/D/A/D/ B/c/d/c/d/B/ | c/d/e/d/c/B/ A/G/F/G/A/F/ | %75
 G/B/c/A/B z B/A/B/G/ | FD/F/E/G/ F/G/F/D/E/F/ | FD/F/E/G/ F/G/F/D/E/F/ | G3 F/G/A/F/G/A/ | %79
 Dd/c/d/B/ EFG- | G/A/G/F/E/D/ EA/B/^c | FB-B AFf- | fe/d/e A3- | Adc B/c/B/A/B/G/ | %84
 A3- A/e/d/c/d/A/ | BG/B/A/c/ B/A/B/c/B/A/ | BG/B/A/c/ B/c/d/c/d/B/ | c/d/e/d/c/B/ A/G/F/G/A/F/ | %88
 (F G2) z2 |] %89
V:3
 z | G,3 F,3 | G,3 B,,3 | C,3 F,,3 | G,,3 G,3 | F,3 D,3 | G,3 A,3 | D,3 A,,3 | E,,3 B,,3 | %9
 E,3 ^G,,3 | A,,A,E, C,A,,C, | D,E,F, G,F,E, | D,3 D,,3 | G,,3 z2 G,, | D,D,,D, D,2 D, | %15
 E,3 D,2 C, | B,,3 C,3 | D,3 E,C,D, | G,,3 G,,3 | G,3 G,G,,G, | C,C,D, E,A,E, | F,2 ^C, D,F,A, | %22
 D,2 ^C, ^D,B,,D, | E,2 F, G,E,G, | A,A,,B,, ^C,A,,C, | D,2 E, F,D,F, | G,3 z E,^G, | %27
 A,A,,C, E,2 ^G, | A,2 F, G,2 E, | F,2 D, B,,2 ^C, | D,2 E, F,D,F, | G,E,A, B,2 F, | G,A,A,, D,3 | %33
 D,,3 D,3 | D,,3 D,2 F, | G,3 A,3 | B,A,G, F,E,D, | G,3 ^G,3 | A,A,E, ^C,A,,C, | D,2 B,, G,,2 A,, | %40
 B,,2 G,, E,,2 F,, | G,,A,,B,, C,D,E, | A,,B,,C, D,E,F, | B,,C,D, E,F,G, | C,D,E, F,G,A, | %45
 D,E,F, G,E,B,, | C,D,D,, G,,2 z | z G,,A,, B,,G,,B,, | C,A,,B,, ^C,A,,C, | D,B,,^C, ^D,B,,D, | %50
 E,E,F, ^G,E,G, | A,A,,A, A,A,,A, | A,A,,A, ^G,E,G, | A,A,,B,, C,A,, z | z A,,B,, C,A,,C, | %55
 D,3- D,C,B,, | A,,A,,B,, C,A,,C, | C,A,,C, D,^D,B,, | E,2 ^G, A,D,E, | A,,A,G, F,2 ^C, | %60
 D,2 F, G,2 _B,, | B,,2 A,, G,,2 ^D, | E,2 G, A,2 B, | ^CA,C D2 F, | G,2 ^G, A,A,,^C, | %65
 D,G,,A,, D,,D,,/E,,/F,, | G,,2 G,, D,2 D, | G,,2 G, C,2 ^C, | D,E, z/ E,/ D,C,D, | G,G,,D, G,,3 | %70
 G,,3 G,,3 | G,,3 G,,3 | z6 | z6 | z6 | z3 G,,3 | D,3 D,3 | D,3 D,3 | E,3 D,2 C, | B,,3 z3 | %80
 z3 A,,3 | B,,2 ^C, D,3 | D,3 ^C,3 | D,6- | D,6 | G,,6- | G,,6- | G,,6- | G,,3 z2 |] %89

